src/assets/filled/Note21.svg

<svg width="24" height="24" viewBox="0 0 24 24"  xmlns="http://www.w3.org/2000/svg">
<path d="M12.6778 19.957C12.9525 20.0209 12.9777 20.3807 12.7101 20.4699L11.1301 20.9899C7.1601 22.2699 5.0701 21.1999 3.7801 17.2299L2.5001 13.2799C1.2201 9.30992 2.2801 7.20992 6.2501 5.92992L6.77409 5.75639C7.17696 5.62297 7.56902 6.02703 7.45463 6.43571C7.39793 6.63828 7.34338 6.84968 7.2901 7.06992L6.3101 11.2599C5.2101 15.9699 6.8201 18.5699 11.5301 19.6899L12.6778 19.957Z" />
<path d="M17.1699 3.21001L15.4999 2.82001C12.1599 2.03001 10.1699 2.68001 8.99994 5.10001C8.69994 5.71001 8.45994 6.45001 8.25994 7.30001L7.27994 11.49C6.29994 15.67 7.58994 17.73 11.7599 18.72L13.4399 19.12C14.0199 19.26 14.5599 19.35 15.0599 19.39C18.1799 19.69 19.8399 18.23 20.6799 14.62L21.6599 10.44C22.6399 6.26001 21.3599 4.19001 17.1699 3.21001ZM15.2899 13.33C15.1999 13.67 14.8999 13.89 14.5599 13.89C14.4999 13.89 14.4399 13.88 14.3699 13.87L11.4599 13.13C11.0599 13.03 10.8199 12.62 10.9199 12.22C11.0199 11.82 11.4299 11.58 11.8299 11.68L14.7399 12.42C15.1499 12.52 15.3899 12.93 15.2899 13.33ZM18.2199 9.95001C18.1299 10.29 17.8299 10.51 17.4899 10.51C17.4299 10.51 17.3699 10.5 17.2999 10.49L12.4499 9.26001C12.0499 9.16001 11.8099 8.75001 11.9099 8.35001C12.0099 7.95001 12.4199 7.71001 12.8199 7.81001L17.6699 9.04001C18.0799 9.13001 18.3199 9.54001 18.2199 9.95001Z" />
</svg>

<?xml version="1.0" encoding="UTF-8"?>
<svg width="24" height="24" viewBox="0 0 24 24" xmlns="http://www.w3.org/2000/svg">
 <path d="m12.678 19.957c0.2747 0.0639 0.2999 0.4237 0.0323 0.5129l-1.58 0.52c-3.97 1.28-6.06 0.21-7.35-3.76l-1.28-3.95c-1.28-3.97-0.22-6.07 3.75-7.35l0.52399-0.17353c0.40287-0.13342 0.79493 0.27064 0.68054 0.67932-0.0567 0.20257-0.11125 0.41397-0.16453 0.63421l-0.98 4.19c-1.1 4.71 0.51 7.31 5.22 8.43l1.1477 0.2671z"/>
 <path d="m17.17 3.21-1.67-0.39c-3.34-0.79-5.33-0.14-6.5 2.28-0.3 0.61-0.54 1.35-0.74 2.2l-0.98 4.19c-0.98 4.18 0.31 6.24 4.48 7.23l1.68 0.4c0.58 0.14 1.12 0.23 1.62 0.27 3.12 0.3 4.78-1.16 5.62-4.77l0.98-4.18c0.98-4.18-0.3-6.25-4.49-7.23zm-1.88 10.12c-0.09 0.34-0.39 0.56-0.73 0.56-0.06 0-0.12-0.01-0.19-0.02l-2.91-0.74c-0.4-0.1-0.64-0.51-0.54-0.91s0.51-0.64 0.91-0.54l2.91 0.74c0.41 0.1 0.65 0.51 0.55 0.91zm2.93-3.38c-0.09 0.33999-0.39 0.55999-0.73 0.55999-0.06 0-0.12-0.01-0.19-0.02l-4.85-1.23c-0.4-0.1-0.64-0.51-0.54-0.91s0.51-0.64 0.91-0.54l4.85 1.23c0.41 0.09 0.65 0.5 0.55 0.91z"/>
</svg>
